X: 01057
T: JIM GARGAN'S JIG
C: Bob McQuillen Oct'75
B: Bob's Note Book 1 #57
R: jig
Z: 2019 John Chambers <jc:trillian.mit.edu>
M: 6/8
L: 1/8
K: G
B/c/ \
| dgg egg | dgg edc |Bdd cde | dBG ABc |\
| dgg egg | dgg edc |Bcd cAF | AGG G2 :|
|: D \
| GAB ABc | Bcd cde | def gdc | BAG FED |\
| GAB cde | def gfe | ded cBA | BGG G2 :|
%%begintext align
%% To my O-Positive friend.
%% Good luck always, Jimmy!
%%endtext

%%sep 1 1 500

%%sep 1 1 500

